icons-rebrand/svg/add-video-marker-light.svg

<svg width="32" height="32" viewBox="0 0 32 32" fill="none" xmlns="http://www.w3.org/2000/svg">
<path d="M23.615 2.5H8.385C7.33332 2.52363 6.3339 2.96316 5.60569 3.72229C4.87749 4.48142 4.47988 5.49826 4.5 6.55V20.545C4.4976 21.2253 4.66386 21.8956 4.98391 22.4959C5.30396 23.0962 5.76782 23.6078 6.334 23.985L13.56 28.781C14.2886 29.2499 15.1369 29.499 16.0034 29.4985C16.8699 29.4979 17.7179 29.2478 18.446 28.778L25.66 23.988C26.2276 23.6113 26.6928 23.0997 27.0139 22.499C27.335 21.8982 27.5021 21.2272 27.5 20.546V6.55C27.5201 5.49826 27.1225 4.48142 26.3943 3.72229C25.6661 2.96316 24.6667 2.52363 23.615 2.5ZM26.5 20.546C26.5027 21.0613 26.3774 21.5691 26.1353 22.024C25.8932 22.4789 25.5419 22.8665 25.113 23.152L17.898 27.941C17.3329 28.3048 16.6751 28.4985 16.0029 28.4991C15.3308 28.4996 14.6727 28.3069 14.107 27.944L6.882 23.149C6.45422 22.8631 6.10404 22.4756 5.86285 22.0212C5.62166 21.5667 5.49698 21.0595 5.5 20.545V6.55C5.47954 5.76337 5.77168 5.00069 6.31243 4.42902C6.85317 3.85735 7.59844 3.52328 8.385 3.5H23.615C24.4016 3.52328 25.1468 3.85735 25.6876 4.42902C26.2283 5.00069 26.5204 5.76337 26.5 6.55V20.545V20.546Z" fill="#0F0F0F"/>
<path d="M20 14.5H16.5V11C16.5 10.8674 16.4473 10.7402 16.3536 10.6464C16.2598 10.5527 16.1326 10.5 16 10.5C15.8674 10.5 15.7402 10.5527 15.6464 10.6464C15.5527 10.7402 15.5 10.8674 15.5 11V14.5H12C11.8674 14.5 11.7402 14.5527 11.6464 14.6464C11.5527 14.7402 11.5 14.8674 11.5 15C11.5 15.1326 11.5527 15.2598 11.6464 15.3536C11.7402 15.4473 11.8674 15.5 12 15.5H15.5V19C15.5 19.1326 15.5527 19.2598 15.6464 19.3536C15.7402 19.4473 15.8674 19.5 16 19.5C16.1326 19.5 16.2598 19.4473 16.3536 19.3536C16.4473 19.2598 16.5 19.1326 16.5 19V15.5H20C20.1326 15.5 20.2598 15.4473 20.3536 15.3536C20.4473 15.2598 20.5 15.1326 20.5 15C20.5 14.8674 20.4473 14.7402 20.3536 14.6464C20.2598 14.5527 20.1326 14.5 20 14.5Z" fill="#0F0F0F"/>
</svg>

<svg width="32" height="32" viewBox="0 0 32 32" fill="none" xmlns="http://www.w3.org/2000/svg"><path d="M23.615 2.5H8.385A3.975 3.975 0 0 0 4.5 6.55v13.995a4.116 4.116 0 0 0 1.834 3.44l7.226 4.796a4.51 4.51 0 0 0 4.886-.003l7.214-4.79a4.116 4.116 0 0 0 1.84-3.442V6.55a3.975 3.975 0 0 0-3.885-4.05zM26.5 20.546a3.111 3.111 0 0 1-1.387 2.606l-7.215 4.789a3.506 3.506 0 0 1-3.791.003l-7.225-4.795A3.11 3.11 0 0 1 5.5 20.545V6.55A2.974 2.974 0 0 1 8.385 3.5h15.23A2.974 2.974 0 0 1 26.5 6.55v13.995z" fill="#0F0F0F"/><path d="M20 14.5h-3.5V11a.5.5 0 1 0-1 0v3.5H12a.5.5 0 0 0 0 1h3.5V19a.5.5 0 1 0 1 0v-3.5H20a.5.5 0 0 0 0-1z" fill="#0F0F0F"/></svg>
